static/images/mobile/copyright/wiktionary-wordmark-en.svg

<?xml version="1.0" encoding="UTF-8"?>
<svg xmlns="http://www.w3.org/2000/svg" width="107" height="19" viewBox="0 0 107 19">
	<title>
		en-wordmark
	</title>
	<g id="Page-1" fill="none" fill-rule="evenodd" stroke="none" stroke-width="1">
		<path id="en-wordmark" fill="#4D4D4D" fill-rule="nonzero" d="M4.96711885,15.3809539 L1.85281488,3.50354614 C1.55715198,2.41271024 1.36661466,1.81595421 1.28120291,1.71326914 C1.1957882,1.61061673 0.83770709,1.5592831 0.206962545,1.55926825 L0,1.54002074 L0,0.952886978 L5.22336002,0.952886978 L5.22336002,1.54002074 L5.03610538,1.54002074 C4.39878659,1.54003262 3.99471545,1.57211576 3.82389195,1.63627018 C3.65306253,1.70045132 3.56765078,1.84803439 3.56765374,2.07902829 C3.56765078,2.29078954 3.66291648,2.7656308 3.85345972,3.50354614 L6.01179145,11.7907806 L9.37247968,1.12613835 L10.0623568,1.12613835 L13.423045,12.0891601 L15.9460262,3.51316841 C16.2285317,2.53783838 16.3697904,1.992413 16.3698082,1.8769012 C16.3697904,1.65232512 15.857311,1.54003262 14.8323641,1.54002074 L14.6549723,1.54002074 L14.6549723,0.952886978 L18.666113,0.952886978 L18.666113,1.54002074 L18.4887182,1.55926825 C17.7856807,1.59778406 17.3963935,1.65874293 17.3208535,1.74214486 C17.2452779,1.82557648 17.036671,2.41271024 16.6950359,3.50354614 L13.1273851,15.3809539 L12.4670698,15.3809539 L9.02754112,4.41793216 L5.64714202,15.3809539 L4.96711885,15.3809539 Z M22.8152356,4.74518441 L22.8152356,12.7051696 C22.8152296,13.5778472 22.8875048,14.0976043 23.0320521,14.2644379 C23.1765934,14.4312714 23.6529397,14.5403595 24.4610849,14.5916931 L24.6483396,14.6013154 L24.6483396,15.1980773 L19.0504762,15.1980773 L19.0504762,14.6013154 L19.2377279,14.5916931 C20.0327306,14.5403595 20.5041439,14.4296707 20.6519769,14.2596238 C20.7998068,14.0895828 20.8737203,13.5714324 20.8737203,12.7051696 L20.8737203,7.2380951 C20.8737203,6.37184123 20.7998068,5.85529455 20.6519769,5.68844912 C20.5041439,5.52162448 20.0327306,5.40932901 19.2377279,5.35156865 L19.0504762,5.34194638 L19.0504762,4.74518441 L22.8152356,4.74518441 Z M20.8737203,2.84903866 L20.8737203,0.952886978 L22.8152356,0.952886978 L22.8152356,2.84903866 L20.8737203,2.84903866 Z M29.0044218,10.0582551 L29.0044218,12.7051696 C29.0044159,13.5650146 29.0717611,14.083165 29.2064574,14.2596238 C29.3411448,14.4360855 29.740286,14.5467773 30.4038869,14.5916931 L30.5911386,14.6013154 L30.5911386,15.1980773 L25.2396595,15.1980773 L25.2396595,14.6013154 L25.4269171,14.5916931 C26.2219138,14.5403595 26.6933302,14.4296707 26.8411631,14.2596238 C26.9889901,14.0895828 27.0629066,13.5714324 27.0629095,12.7051696 L27.0629095,2.49290772 C27.0629066,1.62665979 26.9889901,1.10850643 26.8411631,0.938447632 C26.6933302,0.768418537 26.2219138,0.65773272 25.4269171,0.606381273 L25.2396595,0.596759001 L25.2396595,0 L29.0044218,0 L29.0044218,9.5866242 L29.4676255,9.5866242 L31.9511849,7.25734261 C33.0155595,6.19859283 33.5477498,5.63070955 33.5477586,5.55369871 C33.5477498,5.43178691 33.3670664,5.36601691 33.0057115,5.35638276 C32.6443388,5.3467694 32.3946719,5.34195232 32.2566988,5.34194638 L32.0497392,5.34194638 L32.0497392,4.74518441 L36.2185697,4.74518441 L36.2185697,5.34194638 L36.0313151,5.35156865 C35.3348578,5.39649634 34.8897207,5.47830941 34.6959095,5.59701081 C34.5020777,5.71573004 33.886117,6.27559179 32.8480246,7.27659606 L30.9755018,9.07649237 L34.1883571,12.7629181 C35.0030618,13.661267 35.5138969,14.1826248 35.7208713,14.3270004 C35.9278249,14.4713791 36.2875474,14.5596099 36.8000357,14.5916931 L36.9872873,14.6013154 L36.9872873,15.1980773 L33.9813946,15.1980773 L29.4676255,10.0582551 L29.0044218,10.0582551 Z M44.0831701,15.1403229 C43.5903957,15.3392455 43.1206207,15.4387024 42.6738511,15.4387024 C41.5371925,15.4387024 40.707698,15.1595734 40.1853647,14.6013154 C39.6630254,14.0430603 39.4018602,13.1543396 39.4018602,11.9351592 L39.4018602,5.52482299 L37.8249974,5.52482299 L37.8249974,4.74518441 L39.4018602,4.74518441 L39.4018602,2.84903866 L41.3532294,2.37740483 L41.3532294,4.74518441 L44.3295574,4.74518441 L44.3295574,5.52482299 L41.3532294,5.52482299 L41.3532294,12.1854096 C41.3532235,13.0837555 41.4747743,13.7222229 41.7178759,14.1008117 C41.9609745,14.4793976 42.3748996,14.668692 42.95966,14.668692 C43.2684536,14.668692 43.642957,14.5692352 44.0831701,14.3703125 L44.0831701,15.1403229 Z M49.0305811,4.74518441 L49.0305811,12.7051696 C49.0305752,13.5778472 49.1028503,14.0976043 49.2473976,14.2644379 C49.391939,14.4312714 49.8682823,14.5403595 50.6764305,14.5916931 L50.8636822,14.6013154 L50.8636822,15.1980773 L45.2658188,15.1980773 L45.2658188,14.6013154 L45.4530734,14.5916931 C46.2480731,14.5403595 46.7194865,14.4296707 46.8673194,14.2596238 C47.0151494,14.0895828 47.0890659,13.5714324 47.0890688,12.7051696 L47.0890688,7.2380951 C47.0890659,6.37184123 47.0151494,5.85529455 46.8673194,5.68844912 C46.7194865,5.52162448 46.2480731,5.40932901 45.4530734,5.35156865 L45.2658188,5.34194638 L45.2658188,4.74518441 L49.0305811,4.74518441 Z M47.0890688,2.84903866 L47.0890688,0.952886978 L49.0305811,0.952886978 L49.0305811,2.84903866 L47.0890688,2.84903866 Z M57.1711335,15.4387024 C55.5942677,15.4387024 54.3492039,14.9494277 53.435939,13.9708725 C52.5226711,12.9923202 52.0660416,11.6592406 52.0660416,9.97163087 C52.0660416,8.284033 52.5226711,6.95255717 53.435939,5.97720041 C54.3492039,5.0018674 55.5942677,4.5141816 57.1711335,4.5141816 C58.7545588,4.5141816 60.001264,5.0018674 60.911258,5.97720041 C61.8212284,6.95255717 62.2762284,8.284033 62.2762284,9.97163087 C62.2762284,11.6592406 61.8195841,12.9923202 60.9063311,13.9708725 C59.9930543,14.9494277 58.7479875,15.4387024 57.1711335,15.4387024 L57.1711335,15.4387024 Z M57.1711335,14.8419464 C58.0449708,14.8419464 58.770984,14.3815445 59.3491761,13.4607406 C59.9273475,12.5399368 60.216451,11.3769042 60.216451,9.97163087 C60.216451,8.57920211 59.9273475,7.41937393 59.3491761,6.49214634 C58.770984,5.56493658 58.0449708,5.10131536 57.1711335,5.10131536 C56.3038557,5.10131536 55.5811252,5.56493658 55.0029479,6.49214634 C54.4247617,7.41937393 54.135673,8.57920211 54.135673,9.97163087 C54.135673,11.3769042 54.4231203,12.5399368 54.9980209,13.4607406 C55.5729155,14.3815445 56.2972844,14.8419464 57.1711335,14.8419464 L57.1711335,14.8419464 Z M67.4010341,6.70871278 C67.8937967,5.97721229 68.4621231,5.42858246 69.1060161,5.06281736 C69.7498943,4.69707008 70.4693392,4.5141816 71.2643478,4.5141816 C72.1841721,4.5141816 72.9068997,4.80936258 73.4325305,5.39969486 C73.9515723,5.99004495 74.2110991,6.80176668 74.211108,7.8348541 L74.211108,12.7051696 C74.2570891,13.661267 74.3326469,14.2002686 74.4377814,14.3221893 C74.5428951,14.444107 75.0159557,14.5339416 75.8569573,14.5916931 L76.0343551,14.6013154 L76.0343551,15.1980773 L70.4463486,15.1980773 L70.4463486,14.6013154 L70.6237434,14.5916931 C71.4647302,14.5339416 71.9377878,14.444107 72.0429223,14.3221893 C72.148036,14.2002686 72.2235938,13.661267 72.2695957,12.7051696 L72.2695957,8.13323063 C72.2695868,7.23489361 72.1496803,6.61086557 71.9098733,6.26114353 C71.6700484,5.91143931 71.2413424,5.73658423 70.6237434,5.73657532 C70.1901015,5.73658423 69.7039013,5.86973092 69.1651487,6.13601837 C68.6263812,6.40232066 68.0383411,6.80497113 67.4010341,7.34397275 L67.4010341,12.7051696 C67.4010252,13.5778472 67.4733033,14.0976043 67.6178506,14.2644379 C67.762392,14.4312714 68.2387353,14.5403595 69.0468805,14.5916931 L69.2341322,14.6013154 L69.2341322,15.1980773 L63.6362718,15.1980773 L63.6362718,14.6013154 L63.8235264,14.5916931 C64.6185232,14.5403595 65.0899395,14.4296707 65.2377725,14.2596238 C65.3855995,14.0895828 65.4595159,13.5714324 65.4595189,12.7051696 L65.4595189,7.2380951 C65.4595159,6.37184123 65.3855995,5.85529455 65.2377725,5.68844912 C65.0899395,5.52162448 64.6185232,5.40932901 63.8235264,5.35156865 L63.6362718,5.34194638 L63.6362718,4.74518441 L67.4010341,4.74518441 L67.4010341,6.70871278 Z M83.6328633,13.7639313 C82.4764909,14.8804444 81.333267,15.4387024 80.2031886,15.4387024 C79.2964861,15.4387024 78.540908,15.1579697 77.9364486,14.5965042 C77.3319832,14.0350388 77.029752,13.3308014 77.029752,12.4837891 C77.029752,11.4956145 77.4239662,10.693518 78.2123977,10.0775055 C79.11252,9.37167038 80.6368186,9.01874983 82.7852993,9.01874389 L83.1893705,9.01874389 L83.1893705,7.71935121 C83.1893616,6.0702543 82.5487631,5.24570288 81.2675691,5.24569397 C80.669672,5.24570288 80.1407644,5.42537207 79.6808523,5.78470153 C79.4114656,6.00288059 79.2406421,6.44884315 79.1683699,7.1225922 L79.158516,7.30546881 L77.8378943,7.30546881 L77.8378943,5.39007259 C79.204506,4.80615516 80.4725634,4.5141816 81.6420754,4.5141816 C83.967939,4.5141816 85.1308738,5.55691505 85.1308827,7.64234928 L85.1308827,12.3009125 C85.1308738,13.1350921 85.2047903,13.7222229 85.3526321,14.0623078 C85.5004532,14.4023987 85.7583327,14.5724396 86.1262767,14.5724396 C86.2576755,14.5724396 86.4317846,14.5435669 86.648613,14.4858154 L86.7077456,15.1980773 C86.2412473,15.3584931 85.8240366,15.4387024 85.4561134,15.4387024 C84.4968437,15.4387024 83.8890956,14.8804444 83.6328633,13.7639313 L83.6328633,13.7639313 Z M83.1893705,13.5521789 L83.1893705,9.61549992 L82.7360237,9.61549992 C81.5927908,9.61549992 80.6992398,9.84651165 80.0553556,10.3085084 C79.4114656,10.7705199 79.0895265,11.4057799 79.0895265,12.2142853 C79.0895265,12.8174621 79.2899148,13.3179687 79.6907062,13.7158051 C80.0914888,14.1136444 80.5908286,14.3125641 81.1887256,14.3125641 C81.7537604,14.3125641 82.420644,14.0591004 83.1893705,13.5521789 L83.1893705,13.5521789 Z M91.1328202,7.59422307 L91.1328202,12.7051696 C91.1328113,13.5714324 91.2100164,14.0911865 91.3644176,14.2644379 C91.5188159,14.4376892 91.9902322,14.5467773 92.7786666,14.5916931 L93.2024486,14.6013154 L93.2024486,15.1980773 L87.3680549,15.1980773 L87.3680549,14.6013154 L87.5553125,14.5916931 C88.3503093,14.5403595 88.8217256,14.4296707 88.9695586,14.2596238 C89.1173856,14.0895828 89.191302,13.5714324 89.191305,12.7051696 L89.191305,7.2380951 C89.191302,6.37184123 89.1173856,5.85529455 88.9695586,5.68844912 C88.8217256,5.52162448 88.3503093,5.40932901 87.5553125,5.35156865 L87.3680549,5.34194638 L87.3680549,4.74518441 L91.1328202,4.74518441 L91.1328202,6.70871278 C92.0197971,5.24570288 93.1794462,4.5141816 94.6117707,4.5141816 C94.8088704,4.5141816 95.0289755,4.54948405 95.272083,4.62006222 L95.272083,7.47872315 L94.1781347,7.47872315 L94.1682778,7.30546881 C94.0959997,6.70871872 94.0319401,6.35419446 93.9760991,6.24189602 C93.9202433,6.12960946 93.770772,6.0734647 93.5276793,6.07345282 C92.5552759,6.0734647 91.7569876,6.58038614 91.1328202,7.59422307 L91.1328202,7.59422307 Z M97.5092552,19 L101.017776,15.1980773 L97.6472341,7.27659606 C97.2924387,6.4295897 97.0296262,5.90181704 96.8588027,5.69326025 C96.6879703,5.48472722 96.4251638,5.37083101 96.0703713,5.35156865 L95.8732627,5.34194638 L95.8732627,4.74518441 L100.761535,4.74518441 L100.761535,5.34194638 L100.554573,5.34194638 C99.6610126,5.34195232 99.2142342,5.45745521 99.2142401,5.68844912 C99.2142342,5.80395795 99.4014888,6.33334323 99.7759981,7.27659606 L102.17086,12.8880462 L104.723406,7.24772034 C105.097898,6.41996743 105.285155,5.92266826 105.285161,5.7558258 C105.285155,5.47991312 104.887652,5.34195232 104.092659,5.34194638 L103.826563,5.34194638 L103.826563,4.74518441 L107,4.74518441 L107,5.34194638 L106.812745,5.35156865 C106.40538,5.37724586 106.057158,5.73979166 105.768079,6.439209 C105.715503,6.56113565 105.590669,6.83705725 105.393569,7.26697082 L99.9632498,19 L97.5092552,19 Z"/>
	</g>
</svg>

<svg xmlns="http://www.w3.org/2000/svg" width="107" height="19"><path fill="#4D4D4D" fill-rule="nonzero" d="M4.967 15.381 1.853 3.504c-.296-1.091-.486-1.688-.572-1.79-.085-.103-.443-.155-1.074-.155L0 1.54V.953h5.223v.587h-.187c-.637 0-1.041.032-1.212.096-.17.064-.256.212-.256.443 0 .212.095.687.285 1.425l2.159 8.287 3.36-10.665h.69l3.361 10.963 2.523-8.576c.283-.975.424-1.52.424-1.636 0-.225-.513-.337-1.538-.337h-.177V.953h4.011v.587l-.177.02c-.703.038-1.093.099-1.168.182-.076.084-.284.67-.626 1.762L13.127 15.38h-.66L9.027 4.418 5.648 15.38h-.68zM22.815 4.745v7.96c0 .873.073 1.393.217 1.56.145.166.62.275 1.43.327l.186.01v.596H19.05v-.597l.188-.01c.795-.05 1.266-.161 1.414-.331.148-.17.222-.689.222-1.555V7.238c0-.866-.074-1.383-.222-1.55-.148-.166-.62-.279-1.414-.336l-.188-.01v-.597h3.765zM20.874 2.85V.953h1.941v1.896h-1.941zm8.13 7.21v2.646c0 .86.068 1.378.202 1.555.135.176.534.287 1.198.332l.187.01v.596H25.24v-.597l.187-.01c.795-.05 1.266-.161 1.414-.331.148-.17.222-.689.222-1.555V2.493c0-.866-.074-1.384-.222-1.555-.148-.17-.62-.28-1.414-.332l-.187-.01V0h3.764v9.587h.464l2.483-2.33c1.065-1.058 1.597-1.626 1.597-1.703 0-.122-.18-.188-.542-.198-.362-.01-.611-.014-.75-.014h-.206v-.597h4.169v.597l-.188.01c-.696.044-1.141.126-1.335.245-.194.119-.81.679-1.848 1.68l-1.872 1.8 3.212 3.686c.815.898 1.326 1.42 1.533 1.564.207.144.567.233 1.079.265l.187.01v.596h-3.006l-4.513-5.14h-.464zm15.08 5.081a3.765 3.765 0 0 1-1.41.299c-1.137 0-1.966-.28-2.489-.838-.522-.558-.783-1.447-.783-2.666v-6.41h-1.577v-.78h1.577V2.85l1.951-.472v2.368h2.977v.78h-2.977v6.66c0 .899.122 1.537.365 1.916.243.378.657.568 1.242.568.308 0 .683-.1 1.123-.299v.77zM49.03 4.745v7.96c0 .873.072 1.393.216 1.56.145.166.621.275 1.43.327l.187.01v.596h-5.598v-.597l.187-.01c.795-.05 1.266-.161 1.414-.331.148-.17.222-.689.222-1.555V7.238c0-.866-.074-1.383-.222-1.55-.148-.166-.619-.279-1.414-.336l-.187-.01v-.597h3.765zM47.089 2.85V.953h1.942v1.896h-1.942zm10.082 12.59c-1.577 0-2.822-.49-3.735-1.468-.913-.979-1.37-2.312-1.37-4 0-1.687.457-3.018 1.37-3.994.913-.975 2.158-1.463 3.735-1.463 1.584 0 2.83.488 3.74 1.463.91.976 1.365 2.307 1.365 3.995 0 1.687-.456 3.02-1.37 3.999-.913.978-2.158 1.468-3.735 1.468zm0-.597c.874 0 1.6-.46 2.178-1.381.578-.921.867-2.084.867-3.49 0-1.392-.289-2.552-.867-3.479-.578-.927-1.304-1.39-2.178-1.39-.867 0-1.59.463-2.168 1.39-.578.927-.867 2.087-.867 3.48 0 1.405.287 2.568.862 3.489.575.92 1.3 1.38 2.173 1.38zm10.23-8.133c.493-.732 1.061-1.28 1.705-1.646.644-.366 1.363-.549 2.158-.549.92 0 1.643.295 2.169.886.519.59.778 1.402.778 2.435v4.87c.046.956.122 1.495.227 1.617.105.122.578.212 1.419.27l.177.01v.596h-5.588v-.597l.178-.01c.84-.057 1.314-.147 1.419-.269.105-.122.18-.66.227-1.617V8.133c0-.898-.12-1.522-.36-1.872-.24-.35-.669-.524-1.286-.524-.434 0-.92.133-1.459.399s-1.127.669-1.764 1.208v5.361c0 .873.072 1.393.217 1.56.144.166.62.275 1.429.327l.187.01v.596h-5.598v-.597l.188-.01c.795-.05 1.266-.161 1.414-.331.148-.17.222-.689.222-1.555V7.238c0-.866-.074-1.383-.222-1.55-.148-.166-.62-.279-1.414-.336l-.188-.01v-.597h3.765V6.71zm16.232 7.055c-1.157 1.116-2.3 1.675-3.43 1.675-.907 0-1.662-.281-2.267-.842-.604-.562-.906-1.266-.906-2.113 0-.988.394-1.79 1.182-2.406.9-.706 2.425-1.06 4.573-1.06h.404V7.72c0-1.649-.64-2.473-1.921-2.473-.598 0-1.127.18-1.587.539-.27.218-.44.664-.513 1.338l-.01.182h-1.32V5.39c1.367-.584 2.635-.876 3.804-.876 2.326 0 3.489 1.043 3.489 3.128v4.659c0 .834.074 1.421.222 1.761.147.34.405.51.773.51.132 0 .306-.028.523-.086l.059.712c-.467.16-.884.24-1.252.24-.96 0-1.567-.558-1.823-1.674zm-.444-.212V9.615h-.453c-1.143 0-2.037.232-2.68.694-.645.462-.966 1.097-.966 1.905 0 .603.2 1.104.6 1.502.401.398.9.597 1.499.597.565 0 1.232-.254 2-.76zm7.944-5.958v5.111c0 .866.077 1.386.231 1.56.155.173.626.282 1.415.327l.423.01v.596h-5.834v-.597l.187-.01c.795-.05 1.267-.161 1.415-.331.147-.17.221-.689.221-1.555V7.238c0-.866-.074-1.383-.221-1.55-.148-.166-.62-.279-1.415-.336l-.187-.01v-.597h3.765V6.71c.887-1.463 2.046-2.195 3.479-2.195.197 0 .417.035.66.106V7.48h-1.094l-.01-.174c-.072-.596-.136-.95-.192-1.063-.056-.112-.205-.169-.448-.169-.973 0-1.771.507-2.395 1.521zM97.509 19l3.509-3.802-3.37-7.921c-.356-.847-.618-1.375-.79-1.584-.17-.208-.433-.322-.788-.341l-.197-.01v-.597h4.889v.597h-.207c-.894 0-1.34.115-1.34.346 0 .116.186.645.561 1.589l2.395 5.611 2.552-5.64c.375-.828.562-1.325.562-1.492 0-.276-.397-.414-1.192-.414h-.266v-.597H107v.597l-.187.01c-.408.025-.756.388-1.045 1.087-.052.122-.177.398-.374.828L99.964 19h-2.455z"/></svg>
